X: 1174
T: A Fig for a Kiss.
B:O'Neill's Music of Ireland
N:O'Neill's - 1174
Z:Transcribed by Stephen Foy (shf@access.digex.net)
Z:abc 1.6
M:9/8
R:slipjig
K:Em
G2 B E2 B BAG | F2 A D2 A AGF | G2 B E2 B BAG | (B/c/d).B AGF E2 :|
g2 e g2 e edB | f2 d ded fed | g2 e g2 e edB | dBG GBd e2 f |
g2 e g2 e edB | f2 d ded fed | g2 e f2 ^d e=dB | BdB AGF E3 ||


